img/cont-4.svg

<svg width="44" height="40" viewBox="0 0 44 40" fill="none" xmlns="http://www.w3.org/2000/svg">
<circle cx="20" cy="20" r="20" fill="#F5E9EA"/>
<path d="M39 22.5H32.75V23.125C32.75 24.1196 32.3549 25.0734 31.6517 25.7767C30.9484 26.4799 29.9946 26.875 29 26.875C28.0054 26.875 27.0516 26.4799 26.3483 25.7767C25.6451 25.0734 25.25 24.1196 25.25 23.125V22.5H19C18.337 22.5 17.7011 22.7634 17.2322 23.2322C16.7634 23.7011 16.5 24.337 16.5 25V30C16.5 30.663 16.7634 31.2989 17.2322 31.7678C17.7011 32.2366 18.337 32.5 19 32.5H39C39.663 32.5 40.2989 32.2366 40.7678 31.7678C41.2366 31.2989 41.5 30.663 41.5 30V25C41.5 24.337 41.2366 23.7011 40.7678 23.2322C40.2989 22.7634 39.663 22.5 39 22.5Z" fill="#DA2B36"/>
<path d="M29.0001 7.5C27.8606 7.49893 26.7426 7.79722 25.767 8.36253C24.7915 8.92785 23.9958 9.73865 23.466 10.7071C22.9362 11.6755 22.6925 12.7647 22.7614 13.8565C22.8303 14.9484 23.2092 16.0013 23.8569 16.9012C23.8829 16.9502 23.9143 16.9962 23.9507 17.0385L24.0444 17.148C24.1319 17.2567 24.2218 17.3617 24.2991 17.448L28.397 22.2285C28.4704 22.3136 28.5626 22.3821 28.6669 22.4291C28.7712 22.476 28.8849 22.5002 29.0001 22.5C29.1156 22.5001 29.2297 22.4755 29.3341 22.4282C29.4385 22.3809 29.5307 22.3119 29.604 22.2262L33.5823 17.5725C33.7435 17.4062 33.8943 17.2309 34.0339 17.0475L34.1331 16.9312C34.1709 16.8872 34.203 16.8388 34.2285 16.7873C34.8459 15.8823 35.1969 14.8339 35.2444 13.753C35.292 12.6722 35.0342 11.5991 34.4984 10.6474C33.9626 9.69568 33.1688 8.90073 32.2009 8.34667C31.233 7.79261 30.127 7.50007 29.0001 7.5ZM29.0001 15.75C28.5365 15.75 28.0834 15.618 27.6979 15.3708C27.3125 15.1236 27.0121 14.7722 26.8347 14.361C26.6573 13.9499 26.6109 13.4975 26.7013 13.061C26.7917 12.6246 27.015 12.2237 27.3428 11.909C27.6706 11.5943 28.0882 11.3801 28.5429 11.2932C28.9975 11.2064 29.4688 11.251 29.8971 11.4213C30.3253 11.5916 30.6914 11.88 30.949 12.25C31.2065 12.62 31.344 13.055 31.344 13.5C31.344 14.0967 31.097 14.669 30.6575 15.091C30.2179 15.5129 29.6217 15.75 29.0001 15.75Z" fill="#F0989F"/>
</svg>

<svg width="44" height="40" fill="none" xmlns="http://www.w3.org/2000/svg"><circle cx="20" cy="20" r="20" fill="#F5E9EA"/><path d="M39 22.5h-6.25v.625a3.75 3.75 0 0 1-7.5 0V22.5H19a2.5 2.5 0 0 0-2.5 2.5v5a2.5 2.5 0 0 0 2.5 2.5h20a2.5 2.5 0 0 0 2.5-2.5v-5a2.5 2.5 0 0 0-2.5-2.5Z" fill="#DA2B36"/><path d="M29 7.5a6.442 6.442 0 0 0-3.233.863 6.103 6.103 0 0 0-2.301 2.344 5.795 5.795 0 0 0-.705 3.15 5.84 5.84 0 0 0 1.096 3.044.748.748 0 0 0 .094.137l.093.11c.088.109.178.214.255.3l4.098 4.78a.778.778 0 0 0 .27.201.81.81 0 0 0 .937-.203l3.978-4.653c.161-.167.312-.342.452-.526l.1-.116a.693.693 0 0 0 .094-.144 5.836 5.836 0 0 0 1.016-3.034 5.804 5.804 0 0 0-.746-3.106 6.116 6.116 0 0 0-2.297-2.3A6.45 6.45 0 0 0 29 7.5Zm0 8.25c-.463 0-.917-.132-1.302-.38a2.272 2.272 0 0 1-.863-1.009 2.167 2.167 0 0 1-.134-1.3c.09-.436.314-.837.642-1.152a2.376 2.376 0 0 1 1.2-.616 2.435 2.435 0 0 1 1.354.128c.428.17.794.459 1.052.829.257.37.395.805.395 1.25 0 .597-.247 1.169-.687 1.591A2.395 2.395 0 0 1 29 15.75Z" fill="#F0989F"/></svg>
